!!!!SEGMENT: pl-gd--ee-1638--008-004_marenzio-luca--il-quarto-libro-de-madrigalia-a-sei-voci-la-dipartita-e-amara.krn
!!!cenid: 15xx:866
!!!COM: Marenzio, Luca
!!!COM-rismID: pe30003955
!!!CDT: ~1553-1599/08/22
!!!CNT: Italian
!!!GTL: Il Quarto Libro de madrigalia a sei voci
!!!OTL: La dipartita è amara
!!!OMV: 004
!!!PDT: 1587
!!!AGN:
!!!YEC: Copyright 2022 Narodowy Instytut Fryderyka Chopina (https://polishscores.org)
!!!YEM: License CC-BY-4.0 (https://creativecommons.org/licenses/by/4.0)
!!!SMS-siglum: PL-GD
!!!SMS-shelfmark: Ee 1638
!!!SMS-variant:
!!!SMS-altvar:
!!!SMS-shelfwork: 008-004 G
!!!NIFC-rismSourceID: 1001202747
!!!NIFC-rismChildID: 990039254
!!!NIFC-islandoraID: pl-gd:57883
!!!URL-pdf-islandora: https://repozytorium.nifc.pl/islandora/object/pl-gd%3A57883/datastream/PDF/view
!!!URL-scan: https://polish.musicsources.pl/pl/lokalizacje/galeria/klocki-introligatorskie/655 @EN{Scan on Polish Music Sources Website} @PL{Skany w portalu Dziedzictwo Muzyki Polskiej w otwartym dostępie}
!!!IIIF: https://repozytorium.nifc.pl/islandora/object/pl-gd%3A57883/datastream/IIIF/view
!!!ONB-nifc: UWAGA: zbiór na stronach: Canto: s. 706-716, Alto: s. 554-564, Tenore: s. 402-412, Basso: s.250-260, Quinto: s. 98-108, Sesto: s. 16-26. Uwaga: utwory podzielone wg tytułów w spisach treści dostępnych na końcu każdej księgi głosowej.
!!!AIN: 1 alto 1 bass 1 soprn 1 tenor 2 vox
!!!key: d
**kern	**text	**kern	**text	**kern	**text	**kern	**text	**kern	**text	**kern	**text
*part6	*	*part5	*	*part4	*	*part3	*	*part2	*	*part1	*
*staff6	*	*staff5	*	*staff4	*	*staff3	*	*staff2	*	*staff1	*
*I"SESTO	*	*I"QVINTO	*	*I"BASSO	*	*I"TENORE	*	*I"ALTO	*	*I"CANTO	*
*I'V II	*	*I'V I	*	*I'B	*	*I'T	*	*I'A	*	*I'S	*
*ICvox	*	*ICvox	*	*ICvox	*	*ICvox	*	*ICvox	*	*ICvox	*
*Ivox	*	*Ivox	*	*Ibass	*	*Itenor	*	*Ialto	*	*Isoprn	*
*clefC3	*	*clefC3	*	*clefF3	*	*clefC3	*	*clefC2	*	*clefG2	*
*k[b-]	*	*k[b-]	*	*k[b-]	*	*k[b-]	*	*k[b-]	*	*k[b-]	*
*d:	*	*d:	*	*d:	*	*d:	*	*d:	*	*d:	*
*M2/1	*	*M2/1	*	*M2/1	*	*M2/1	*	*M2/1	*	*M2/1	*
*met(C)	*	*met(C)	*	*met(C)	*	*met(C)	*	*met(C)	*	*met(C)	*
=1-	=1-	=1-	=1-	=1-	=1-	=1-	=1-	=1-	=1-	=1-	=1-
*xywh-#18:1007,541,3359,839	*	*xywh-#100:1115,553,3338,877	*	*xywh-#252:1323,597,3343,868	*	*xywh-#404:1354,512,3356,906	*	*xywh-#556:1221,546,3425,844	*	*xywh-#708:1264,514,3430,821	*
!	!	!	!	!LO:TX:t=P:problem:podwójnie zapisany znak przykluczowy: BB- B-	!	!	!	!	!	!	!
!	!	!	!	!	!	!	!	!LO:TX:t=P:problem:podwójnie zapisany znak przykluczowy	!	!	!
1d	LA	1f	LA	00r	.	00r	.	1a	LA	2r	.
.	.	.	.	.	.	.	.	.	.	2dd\	LA
2.B-/	dipar-	2.f\	dipar-	.	.	.	.	2.b-\	dipar-	2.dd\	dipar-
4B-/	-ti-	4f\	-ti-	.	.	.	.	4b-\	-ti-	4dd\	-ti-
=2-	=2-	=2-	=2-	=2-	=2-	=2-	=2-	=2-	=2-	=2-	=2-
2B-/	-ta	2f\	-ta	.	.	.	.	2b-\	-ta	2dd\	-ta
2F/	è a-	2f\	è a-	.	.	.	.	1a	è a-	2cc\	è a-
1G	-ma-	1d	-ma-	.	.	.	.	.	.	1b-	-ma-
.	.	.	.	.	.	.	.	1g\	-ma-	.	.
=3-	=3-	=3-	=3-	=3-	=3-	=3-	=3-	=3-	=3-	=3-	=3-
1D	-ra	1d	-ra	1r	.	1r	.	.	.	1a	-ra
.	.	.	.	.	.	.	.	2f#X\	-ra	.	.
2r	.	1r	.	1d	LA	2r	.	1r	.	2r	.
2f\	La	.	.	.	.	2d\	La	.	.	2a/	La
=4-	=4-	=4-	=4-	=4-	=4-	=4-	=4-	=4-	=4-	=4-	=4-
2.f\	dipar-	00r	.	2.B-\	dipar-	2.d\	dipar-	00r	.	2.b-/	dipar-
4f\	-ti-	.	.	4B-\	-ti-	4d\	-ti-	.	.	4b-/	-ti-
2f\	-ta	.	.	2B-\	-ta	2d\	-ta	.	.	2b-/	-ta
2f\	è a-	.	.	2F/	è a-	2c/	è a-	.	.	1a/	è a-
=5-	=5-	=5-	=5-	=5-	=5-	=5-	=5-	=5-	=5-	=5-	=5-
1d	-ma-	.	.	1G	-ma-	1B-	-ma-	.	.	.	.
.	.	.	.	.	.	.	.	.	.	1g	-ma-
!	!	!	!	!	!	!	!	!	!	!	!
1d	-ra	.	.	1D	-ra	1A	-ra	.	.	.	.
!	!	!	!	!	!	!	!	!	!	!	!
.	.	.	.	.	.	.	.	.	.	2f#X/	-ra
*custos:B-	*	*	*	*	*	*	*	*	*	*custos:g	*
!LO:LB:g=original	!	!	!	!	!	!	!	!	!	!LO:LB:g=original	!
=6-	=6-	=6-	=6-	=6-	=6-	=6-	=6-	=6-	=6-	=6-	=6-
*xywh-#18:972,1249,3366,666	*	*	*	*	*	*	*	*	*	*xywh-#708:1248,1176,3415,714	*
4r	.	4r	.	4r	.	0r	.	4r	.	4r	.
2B-/	Ma	2d\	Ma	2G\	Ma	.	.	2b-\	Ma	2g/	Ma
4B-/	per-	4d\	per-	4G\	per-	.	.	4b-\	per-	4g/	per-
1B-	-che è	1d	-che è	1G	-che è	.	.	1g	-che è	1b-	-che è
=7-	=7-	=7-	=7-	=7-	=7-	=7-	=7-	=7-	=7-	=7-	=7-
4A/	dol-	4f\	dol-	4F/	dol-	1r	.	4a\	dol-	4cc\	dol-
!	!	!	!	!	!	!	!	!LO:N:acc=#	!	!	!
4F/	-ce e	4f\	-ce e	4D/	-ce e	.	.	4bn\	-ce e	4dd\	-ce e
*	*	*custos:e	*	*	*	*	*	*custos:cc	*	*	*
!	!	!LO:LB:g=original	!	!	!	!	!	!LO:LB:g=original	!	!	!
*	*	*xywh-#100:1073,1217,3379,718	*	*	*	*	*	*xywh-#556:1198,1222,3402,721	*	*	*
4G/	ca-	8e-X\	ca-	2C/	ca-	.	.	2cc\	ca-	2ee-X\	ca-
.	.	8d\	.	.	.	.	.	.	.	.	.
4A/	.	4c/	.	.	.	.	.	.	.	.	.
*	*	*	*	*custos:BB-	*	*	*	*	*	*	*
!	!	!	!	!LO:LB:g=original	!	!	!	!	!	!	!
*	*	*	*	*xywh-#252:1292,1303,3397,760	*	*	*	*	*	*	*
2B-/	-ra	2d\	-ra	4BB-/	-ra	4r	.	4fny\	-ra	4dd\	-ra
.	.	.	.	4B-\	La	4d\	La	4f\	La	4b-/	La
2r	.	2r	.	4.B-\	giun-	4.f\	giun-	4.b-yX\	giun-	4.dd\	giun-
.	.	.	.	8G\	-ta	8g\	-ta	8b-\	-ta	8dd\	-ta
=8-	=8-	=8-	=8-	=8-	=8-	=8-	=8-	=8-	=8-	=8-	=8-
1r	.	1r	.	4A\	del	4e\	del	4a\	del	4cc\	del
.	.	.	.	4F/	ri-	4a\	ri-	4cc\	ri-	4ff\	ri-
!	!	!	!	!	!	!	!	!	!	!	!
.	.	.	.	2c\	-tor-	2g\	-tor-	2cc\	-tor-	2eeny\	-tor-
*	*	*	*	*	*	*custos:a	*	*	*	*	*
!	!	!	!	!	!	!LO:LB:g=original	!	!	!	!	!
*	*	*	*	*	*	*xywh-#404:1308,1181,3379,729	*	*	*	*	*
4r	.	4r	.	4F/	-no	1a	-no	2cc\	-no	4ff\	-no
4c/	Da	4f\	Da	4F/	Da	.	.	.	.	4cc\	Da
4.f\	l`in-	4.a\	l`in-	4.F/	l`in-	.	.	2r	.	4.cc\	l`in-
!	!	!	!	!	!	!	!	!	!	!	!
8f\	-fe-	8a\	-fe-	8D/	-fe-	.	.	.	.	8dd\	-fe-
*	*	*	*	*	*	*	*	*	*	*custos:cc	*
!	!	!	!	!	!	!	!	!	!	!LO:LB:g=original	!
=9-	=9-	=9-	=9-	=9-	=9-	=9-	=9-	=9-	=9-	=9-	=9-
*	*	*	*	*	*	*	*	*	*	*xywh-#708:1248,1724,3415,737	*
4f\	-li-	4a\	-li-	4F/	-li-	0r	.	1r	.	4cc\	-li-
4d\	-ce	4g\	-ce	4G\	-ce	.	.	.	.	4b-/	-ce
1c#X	gior-	1eny	gior-	1A	gior-	.	.	.	.	1a	gior-
.	.	.	.	.	.	.	.	2r	.	.	.
4c#/	-no	4e\	-no	4A\	-no	.	.	4r	.	2a/	-no
4d\	De	4f#X\	De	4D/	De	.	.	4a\	De	.	.
=10-	=10-	=10-	=10-	=10-	=10-	=10-	=10-	=10-	=10-	=10-	=10-
4.d\	la	2g\	la	2.G\	la	4r	.	2.b-\	la	2r	.
.	.	.	.	.	.	4d\	De	.	.	.	.
!	!	!	!	!	!	!	!	!	!	!	!
8cny/	par-	.	.	.	.	.	.	.	.	.	.
*custos:B-	*	*	*	*	*	*	*	*	*	*	*
!LO:LB:g=original	!	!	!	!	!	!	!	!	!	!	!
*xywh-#18:979,1783,3345,680	*	*	*	*	*	*	*	*	*	*	*
2B-/	-ten-	2G/	par-	.	.	2.g\	la	.	.	2dd\	De
!	!	!	!	!	!	!	!	!	!	!	!
.	.	.	.	4F/	par-	.	.	4a\	par-	.	.
*	*	*	*	*custos:E-	*	*	*	*	*	*	*
!	!	!	!	!LO:LB:g=original	!	!	!	!	!	!	!
*	*	*	*	*xywh-#252:1276,1831,3397,729	*	*	*	*	*	*	*
2B-/	-za	2G/	-ten-	2.E-X/	-ten-	.	.	2g\	-ten-	2.gg\	la
.	.	.	.	.	.	4f\	par-	.	.	.	.
2G/	De	2B-/	-za	.	.	2.e-X\	-ten-	2g\	-za	.	.
.	.	.	.	4D/	-za	.	.	.	.	4ff\	par-
=11-	=11-	=11-	=11-	=11-	=11-	=11-	=11-	=11-	=11-	=11-	=11-
4g\	la	2.c/	ri-	0C	ri-	.	.	0g	ri-	2.ee-X\	-ten-
4f\	par-	.	.	.	.	4d\	-za	.	.	.	.
2.e-X\	-ten-	.	.	.	.	2.c/	ri-	.	.	.	.
.	.	8B-/	.	.	.	.	.	.	.	4dd\	-za
.	.	8A/	.	.	.	.	.	.	.	.	.
*	*	*custos:G	*	*	*	*	*	*	*	*	*
!	!	!LO:LB:g=original	!	!	!	!	!	!	!	!	!
*	*	*xywh-#100:1128,1769,3331,684	*	*	*	*	*	*	*	*	*
.	.	1G	.	.	.	.	.	.	.	1cc	mi-
4d\	-za	.	.	.	.	4d\	.	.	.	.	.
1c\	ri-	.	.	.	.	2e-X\	.	.	.	.	.
=12-	=12-	=12-	=12-	=12-	=12-	=12-	=12-	=12-	=12-	=12-	=12-
.	.	0G	-a	0G	-a	0d	-a	0g	-a	0dd	-a
!LO:N:acc=#	!	!	!	!	!	!	!	!	!	!	!
4Bn/	.	.	.	.	.	.	.	.	.	.	.
4A/	.	.	.	.	.	.	.	.	.	.	.
!LO:N:acc=#	!	!	!	!	!	!	!	!	!	!	!
1Bn	-a	.	.	.	.	.	.	.	.	.	.
=13-	=13-	=13-	=13-	=13-	=13-	=13-	=13-	=13-	=13-	=13-	=13-
0r	.	2r	.	0r	.	00r	.	1r	.	2.g/	Naſ-
.	.	2.G/	Naſ-	.	.	.	.	.	.	.	.
.	.	.	.	.	.	.	.	.	.	4g/	-ce
.	.	.	.	.	.	.	.	2.d/	Naſ-	2g/	la
.	.	4G/	-ce	.	.	.	.	.	.	.	.
.	.	2G/	la	.	.	.	.	.	.	2.b-/	gio-
!	!	!	!	!	!	!	!	!	!	!	!
.	.	.	.	.	.	.	.	4d/	-ce	.	.
*	*	*	*	*	*	*	*	*custos:d	*	*	*
!	!	!	!	!	!	!	!	!LO:LB:g=original	!	!	!
=14-	=14-	=14-	=14-	=14-	=14-	=14-	=14-	=14-	=14-	=14-	=14-
*	*	*	*	*	*	*	*	*xywh-#556:1213,1760,3363,683	*	*	*
1r	.	2.B-/	gio-	1r	.	.	.	2d/	la	.	.
.	.	.	.	.	.	.	.	.	.	4cc\	.
.	.	.	.	.	.	.	.	2.f\	gio-	2.dd\	.
.	.	4c/	.	.	.	.	.	.	.	.	.
2r	.	2.d\	.	2r	.	.	.	.	.	.	.
.	.	.	.	.	.	.	.	4g\	.	4eeny\	.
2.d\	Naſ-	.	.	2.D/	Naſ-	.	.	1a\	.	1ff\	.
.	.	4e\	.	.	.	.	.	.	.	.	.
=15-	=15-	=15-	=15-	=15-	=15-	=15-	=15-	=15-	=15-	=15-	=15-
.	.	2fny\	.	.	.	2.A/	Naſ-	.	.	.	.
4d\	-ce	.	.	4D/	-ce	.	.	.	.	.	.
!	!	!	!	!	!	!	!	!	!	!	!
2d\	la	2f\	-ia	2D/	la	.	.	2a\	-ia	2ff\	-ia
.	.	.	.	.	.	4A/	-ce	.	.	.	.
*	*	*	*	*	*	*	*	*	*	*custos:ff	*
!	!	!	!	!	!	!	!	!	!	!LO:LB:g=original	!
*	*	*	*	*	*	*	*	*	*	*xywh-#708:1279,2241,3377,737	*
2c/	gio-	1f	mi-	2.F/	gio-	2A/	la	0a	mi-	1ff	mi-
2A/	-ia	.	.	.	.	2.c/	gio-	.	.	.	.
.	.	.	.	4G\	.	.	.	.	.	.	.
=16-	=16-	=16-	=16-	=16-	=16-	=16-	=16-	=16-	=16-	=16-	=16-
2c/	mi-	1e	-a	2.A\	.	.	.	.	.	2cc\	-a
.	.	.	.	.	.	4d\	.	.	.	.	.
!	!	!	!	!	!	!	!	!	!	!	!
2c/	-a	.	.	.	.	1eny	.	.	.	2.cc\	Naſ-
.	.	.	.	4B-\	.	.	.	.	.	.	.
*custos:e	*	*	*	*	*	*	*	*	*	*	*
!LO:LB:g=original	!	!	!	!	!	!	!	!	!	!	!
*xywh-#18:979,2297,3359,680	*	*	*	*	*	*	*	*	*	*	*
4r	.	4r	.	2c\	.	.	.	4g\	-a	.	.
4.eny\	Naſ-	4.c/	Naſ-	.	.	.	.	4.g\	Naſ-	4cc\	-ce
!	!	!	!	!	!	!	!	!	!	!	!
.	.	.	.	2C/	-ia	2g\	-ia	.	.	2cc\	la
8e\	-ce	8c/	-ce	.	.	.	.	8g\	-ce	.	.
4e\	la	4G/	la	.	.	.	.	4cc\	la	.	.
*	*	*	*	*	*	*custos:f	*	*	*	*	*
!	!	!	!	!	!	!LO:LB:g=original	!	!	!	!	!
=17-	=17-	=17-	=17-	=17-	=17-	=17-	=17-	=17-	=17-	=17-	=17-
*	*	*	*	*	*	*xywh-#404:1355,1718,3363,729	*	*	*	*	*
2c/	gio-	2A/	gio-	2.F/	mi-	2.f\	mi-	2cc\	gio-	4a/	gio-
.	.	.	.	.	.	.	.	.	.	4a/	-ia
!	!	!	!	!	!	!	!	!	!	!	!
2f\	-ia	2A/	-ia	.	.	.	.	2a\	-ia	2.dd\	mi-
.	.	.	.	4G\	.	8e\	.	.	.	.	.
.	.	.	.	.	.	8d\	.	.	.	.	.
*	*	*custos:A	*	*	*	*	*	*	*	*	*
!	!	!LO:LB:g=original	!	!	!	!	!	!	!	!	!
*	*	*xywh-#100:1066,2329,3393,691	*	*	*	*	*	*	*	*	*
1e	mi-	1A	mi-	1A	.	4a\	.	1a	mi-	.	.
.	.	.	.	.	.	8g\	.	.	.	8cc#X\	.
!	!	!	!	!	!	!	!	!	!	!LO:N:acc=#	!
.	.	.	.	.	.	8f\	.	.	.	8bn\	.
.	.	.	.	.	.	2e\	.	.	.	2cc#X\	.
=18-	=18-	=18-	=18-	=18-	=18-	=18-	=18-	=18-	=18-	=18-	=18-
!	!	!	!	!	!	!	!	!	!	!	!
1d	-a	1A	-a	1D	-a	1f#X	-a	1a	-a	1dd	-a
*	*	*	*	*custos:G	*	*	*	*	*	*	*
!	!	!	!	!LO:LB:g=original	!	!	!	!	!	!	!
*	*	*	*	*xywh-#252:1284,2327,3397,768	*	*	*	*	*	*	*
4r	.	1r	.	4r	.	4r	.	4r	.	4r	.
2B-y/	Ma	.	.	2G\	Ma	2d\	Ma	2b-\	Ma	2g/	Ma
4B-/	per-	.	.	4G\	per-	4d\	per-	4b-\	per-	4g/	per-
=19-	=19-	=19-	=19-	=19-	=19-	=19-	=19-	=19-	=19-	=19-	=19-
1B-	-che è	0r	.	1G	-che è	1d	-che è	1g	-che è	1b-y	-che è
4A/	dol-	.	.	4F/	dol-	4fny\	dol-	4a\	dol-	4ccny\	dol-
!	!	!	!	!	!	!	!	!LO:N:acc=#	!	!	!
4F/	-ce e	.	.	4D/	-ce e	4f\	-ce e	4bn\	-ce e	4dd\	-ce e
*	*	*	*	*	*	*	*	*custos:cc	*	*	*
!	!	!	!	!	!	!	!	!LO:LB:g=original	!	!	!
*	*	*	*	*	*	*	*	*xywh-#556:1213,2282,3394,706	*	*	*
4G/	ca-	.	.	2C/	ca-	8e-X\	ca-	2cc\	ca-	2ee-X\	ca-
.	.	.	.	.	.	8d\	.	.	.	.	.
4A/	.	.	.	.	.	4c/	.	.	.	.	.
=20-	=20-	=20-	=20-	=20-	=20-	=20-	=20-	=20-	=20-	=20-	=20-
2B-/	-ra	4r	.	4BB-/	-ra	2d\	-ra	4f\	-ra	4dd\	-ra
!	!	!	!	!	!	!	!	!	!	!	!
.	.	4d\	La	4B-\	La	.	.	4f\	La	4b-/	La
*	*	*	*	*	*	*	*	*	*	*custos:dd	*
!	!	!	!	!	!	!	!	!	!	!LO:LB:g=original	!
*	*	*	*	*	*	*	*	*	*	*xywh-#708:1279,2827,3339,699	*
2r	.	4.f\	giun-	4.B-\	giun-	2r	.	4.b-y\	giun-	4.dd\	giun-
.	.	8g\	-ta	8G\	-ta	.	.	8b-\	-ta	8dd\	-ta
1r	.	4e\	del	4A\	del	1r	.	4a\	del	4cc\	del
.	.	4a\	ri-	4F/	ri-	.	.	4cc\	ri-	4ff\	ri-
.	.	2g\	-tor-	2c\	-tor-	.	.	2cc\	-tor-	2eeny\	-tor-
=21-	=21-	=21-	=21-	=21-	=21-	=21-	=21-	=21-	=21-	=21-	=21-
4r	.	1a	-no	4F/	-no	4r	.	2cc\	-no	4ff\	-no
4c/	Da	.	.	4F/	Da	4f\	Da	.	.	4cc\	Da
4.f\	l`in-	.	.	4.F/	l`in-	4.a\	l`in-	2r	.	4.cc\	l`in-
!	!	!	!	!	!	!	!	!	!	!	!
8f\	-fe-	.	.	8D/	-fe-	8a\	-fe-	.	.	8dd\	-fe-
*custos:f	*	*	*	*custos:F	*	*custos:a	*	*	*	*	*
!LO:LB:g=original	!	!	!	!LO:LB:g=original	!	!LO:LB:g=original	!	!	!	!	!
*xywh-#18:1007,2838,3324,659	*	*	*	*xywh-#252:1292,2917,3390,744	*	*xywh-#404:1347,2225,3340,744	*	*	*	*	*
4f\	-li-	1r	.	4F/	-li-	4a\	-li-	1r	.	4cc\	-li-
4d\	-ce	.	.	4G\	-ce	4g\	-ce	.	.	4b-/	-ce
1c#X\	gior-	.	.	1A\	gior-	1eny\	gior-	.	.	1a/	gior-
=22-	=22-	=22-	=22-	=22-	=22-	=22-	=22-	=22-	=22-	=22-	=22-
.	.	1r	.	.	.	.	.	2r	.	.	.
4c#yX/	-no	.	.	4A\	-no	4e\	-no	4r	.	2a/	-no
4d\	De	.	.	4D/	De	4f#X\	De	4a\	De	.	.
4.d\	la	4r	.	2.G\	la	2g\	la	2.b-\	la	2r	.
.	.	4d\	De	.	.	.	.	.	.	.	.
8c#/	par-	.	.	.	.	.	.	.	.	.	.
2B-/	-ten-	2.g\	la	.	.	2G/	par-	.	.	2dd\	De
.	.	.	.	4F/	par-	.	.	4a\	par-	.	.
=23-	=23-	=23-	=23-	=23-	=23-	=23-	=23-	=23-	=23-	=23-	=23-
2B-/	-za	.	.	2.E-X/	-ten-	2G/	-ten-	2g\	-ten-	2.gg\	la
.	.	4f\	par-	.	.	.	.	.	.	.	.
2G/	De	2.e-X\	-ten-	.	.	2B-/	-za	2g\	-za	.	.
.	.	.	.	4D/	-za	.	.	.	.	4ff\	par-
4g\	la	.	.	0C	ri-	2.c/	ri-	0g	ri-	2.ee-X\	-ten-
4f\	par-	4d\	-za	.	.	.	.	.	.	.	.
2.e-X\	-ten-	2.c/	ri-	.	.	.	.	.	.	.	.
.	.	.	.	.	.	8B-/	.	.	.	4dd\	-za
.	.	.	.	.	.	8A/	.	.	.	.	.
=24-	=24-	=24-	=24-	=24-	=24-	=24-	=24-	=24-	=24-	=24-	=24-
.	.	.	.	.	.	1G	.	.	.	1cc	ri-
4d\	-za	4d\	.	.	.	.	.	.	.	.	.
!	!	!	!	!	!	!	!	!	!	!	!
1cny	ri-	2e-X\	.	.	.	.	.	.	.	.	.
*	*	*custos:d	*	*	*	*	*	*	*	*	*
!	!	!LO:LB:g=original	!	!	!	!	!	!	!	!	!
*	*	*xywh-#100:1066,2841,3393,691	*	*	*	*	*	*	*	*	*
.	.	0d	-a	0G	-a	1G	-a	1g	-a	0dd	-a
!LO:N:acc=#	!	!	!	!	!	!	!	!	!	!	!
4Bn/	.	.	.	.	.	.	.	.	.	.	.
4A/	.	.	.	.	.	.	.	.	.	.	.
*	*	*	*	*	*	*	*	*	*	*custos:gg	*
!	!	!	!	!	!	!	!	!	!	!LO:LB:g=original	!
=25-	=25-	=25-	=25-	=25-	=25-	=25-	=25-	=25-	=25-	=25-	=25-
*	*	*	*	*	*	*	*	*	*	*xywh-#708:1271,3374,3361,730	*
!LO:N:acc=#	!	!	!	!	!	!	!	!	!	!	!
1Bn	-a	.	.	.	.	00r	.	1r	.	.	.
*	*	*	*	*	*	*	*	*custos:cc	*	*	*
!	!	!	!	!	!	!	!	!LO:LB:g=original	!	!	!
*	*	*	*	*	*	*	*	*xywh-#556:1190,2812,3379,744	*	*	*
1r	.	1r	.	1c	Naſ-	.	.	4cc\	Naſ-	2r	.
.	.	.	.	.	.	.	.	8b-\	-ce	.	.
.	.	.	.	.	.	.	.	8a\	la	.	.
*	*	*	*	*	*	*	*	*	*	*	*
!	!	!	!	!	!	!	!	!	!	!	!
.	.	.	.	.	.	.	.	4g\	gio-	4gg\	Naſ-
.	.	.	.	.	.	.	.	4a\	-ia	8ff\	-ce
.	.	.	.	.	.	.	.	.	.	8eeny\	la
=26-	=26-	=26-	=26-	=26-	=26-	=26-	=26-	=26-	=26-	=26-	=26-
0r	.	4g\	Naſ-	1B-	-ce	.	.	2b-\	mi-	4dd\	gio-
.	.	8f\	-ce	.	.	.	.	.	.	4ee\	-ia
.	.	8eny\	la	.	.	.	.	.	.	.	.
.	.	4d\	gio-	.	.	.	.	2f\	-a	2ff\	mi-
.	.	4e\	-ia	.	.	.	.	.	.	.	.
.	.	2f\	mi-	1A	la	.	.	4a\	Naſ-	2cc\	-a
.	.	.	.	.	.	.	.	8g\	-ce	.	.
.	.	.	.	.	.	.	.	8f\	la	.	.
.	.	2c/	-a	.	.	.	.	4e/	gio-	4ee#X\	Naſ-
.	.	.	.	.	.	.	.	4f\	-ia	8dd\	-ce
.	.	.	.	.	.	.	.	.	.	8cc\	la
=27-	=27-	=27-	=27-	=27-	=27-	=27-	=27-	=27-	=27-	=27-	=27-
!	!	!	!	!	!	!	!	!	!	!LO:N:acc=#	!
1r	.	4e\	Naſ-	2G\	gio-	0r	.	2g\	mi-	4bn/	gio-
.	.	8d\	-ce	.	.	.	.	.	.	4cc\	-ia
.	.	8c/	la	.	.	.	.	.	.	.	.
!	!	!LO:N:acc=#	!	!	!	!	!	!	!	!	!
.	.	4Bn/	gio-	2G\	-ia	.	.	2d/	-a	2dd\	mi-
.	.	4c/	-ia	.	.	.	.	.	.	.	.
*custos:a	*	*	*	*	*	*	*	*	*	*	*
!LO:LB:g=original	!	!	!	!	!	!	!	!	!	!	!
*xywh-#18:958,3345,3345,749	*	*	*	*	*	*	*	*	*	*	*
2r	.	2d\	mi-	2.F/	mi-	.	.	4f\	Naſ-	2a/	-a
.	.	.	.	.	.	.	.	8e/	-ce	.	.
.	.	.	.	.	.	.	.	8d/	la	.	.
4a\	Naſ-	2A/	-a	.	.	.	.	2c/	gio-	4ff\	Naſ-
8g\	-ce	.	.	4G\	.	.	.	.	.	8eeny\	-ce
8f\	la	.	.	.	.	.	.	.	.	8dd\	la
=28-	=28-	=28-	=28-	=28-	=28-	=28-	=28-	=28-	=28-	=28-	=28-
4eny\	gio-	2r	.	00A	.	4a\	Naſ-	2c/	-ia	4cc\	gio-
4d\	-ia	.	.	.	.	8g\	-ce	.	.	4dd\	-ia
.	.	.	.	.	.	8fny\	la	.	.	.	.
!	!	!	!	!	!	!	!	!	!	!	!
4c/	mi-	4a\	Naſ-	.	.	4.e\	gio-	2r	.	2ee\	mi-
4c/	-a	8g\	-ce	.	.	.	.	.	.	.	.
!	!	!	!	!	!	!	!	!	!	!	!
.	.	8f\	la	.	.	8d\	-ia	.	.	.	.
*	*	*custos:e	*	*	*	*	*	*custos:a	*	*custos:ee	*
!	!	!LO:LB:g=original	!	!	!	!	!	!LO:LB:g=original	!	!LO:LB:g=original	!
*	*	*xywh-#100:1052,3394,3366,628	*	*	*	*xywh-#404:1355,2763,3333,698	*	*xywh-#556:1205,3350,3394,729	*	*xywh-#708:1271,3876,3339,707	*
2r	.	2e\	gio-	.	.	4c/	mi-	4a\	Naſ-	2ee\	-a
.	.	.	.	.	.	4c/	-a	8g\	-ce	.	.
.	.	.	.	.	.	.	.	8f\	la	.	.
4c/	Naſ-	2A/	-ia	.	.	2r	.	4e/	gio-	4aa\	Naſ-
8c/	-ce	.	.	.	.	.	.	4e/	-ia	8gg\	-ce
8d\	la	.	.	.	.	.	.	.	.	8ff\	la
=29-	=29-	=29-	=29-	=29-	=29-	=29-	=29-	=29-	=29-	=29-	=29-
4e\	gio-	2r	.	.	.	4c/	Naſ-	4a\	Naſ-	4ee\	gio-
4e\	-ia	.	.	.	.	8c/	-ce	8g\	-ce	4ee\	-ia
.	.	.	.	.	.	8d\	la	8f\	la	.	.
4c/	Naſ-	2A/	la	.	.	4e\	gio-	4.e/	gio-	4aa\	Naſ-
8c/	-ce	.	.	.	.	4e\	-ia	.	.	8gg\	-ce
8d\	la	.	.	.	.	.	.	8a\	-ia	8ff\	la
4e\	gio-	4c#X/	gio-	.	.	1A	mi-	1a	mi-	4ee\	gio-
4f\	-ia	4d\	-ia	.	.	.	.	.	.	4dd\	-ia
2e\	mi-	2e\	mi-	.	.	.	.	.	.	2cc#X\	mi-
=30-	=30-	=30-	=30-	=30-	=30-	=30-	=30-	=30-	=30-	=30-	=30-
00d	-a.	00f#X	-a.	00D	-a.	00A	-a.	00a	-a.	00dd	-a.
==	==	==	==	==	==	==	==	==	==	==	==
*-	*-	*-	*-	*-	*-	*-	*-	*-	*-	*-	*-
!!!system-decoration: [(s1,s2,s3,s4,s5,s6)]
!!!ENC: Filip Voros
!!!END: 2022-06-14
!!!ENC: Natalia Wrzos
!!!END: 2022-07-25
!!!ENC-iiif: Jolanta Bujas-Poniatowska
!!!END-iiif: 2022-09-23
